assets/luts/SONY_CYBERSHOT_DSC-WX5.CUBE
#Created by: Adobe Photoshop Export Color Lookup Plugin
TITLE "SONY_CYBERSHOT_DSC-WX5"
#LUT size
LUT_3D_SIZE 8
#data domain
#LUT data points
DOMAIN_MIN 0.000000 0.000000 0.000000
DOMAIN_MAX 0.903226 0.903226 0.903226
0.047058 0.047058 0.047058
0.094360 0.042755 0.042755
0.239471 0.029633 0.029633
0.425385 0.012787 0.012787
0.648621 0.000000 0.000000
0.853058 0.000000 0.000000
0.997253 0.000000 0.000000
1.000000 0.047058 0.047058
0.047058 0.079071 0.047058
0.095642 0.081024 0.038513
0.245667 0.061432 0.020203
0.429199 0.046234 0.006958
0.648102 0.037354 0.000000
0.853058 0.036041 0.000000
0.997253 0.035309 0.000000
1.000000 0.079163 0.047058
0.047058 0.212097 0.047058
0.089539 0.212738 0.046082
0.244202 0.231018 0.012695
0.417572 0.200317 0.000000
0.629486 0.187347 0.000000
0.835388 0.181732 0.000000
0.980652 0.179321 0.000000
1.000000 0.198547 0.030792
0.047058 0.377167 0.047058
0.090088 0.377167 0.047058
0.217407 0.402496 0.008667
0.414185 0.397400 0.000000
0.609924 0.363037 0.000000
0.812408 0.353455 0.000000
0.957581 0.349976 0.000000
1.000000 0.351532 0.007782
0.047058 0.580505 0.047058
0.090027 0.580505 0.047058
0.213715 0.592926 0.028503
0.385651 0.597900 0.000000
0.609924 0.586700 0.000000
0.800110 0.562378 0.000000
0.934235 0.551727 0.000000
0.980560 0.548920 0.000000
0.047058 0.779846 0.047058
0.090179 0.779846 0.047058
0.222015 0.779846 0.047058
0.377472 0.804047 0.000000
0.586945 0.775757 0.000000
0.800110 0.772552 0.000000
0.934235 0.757935 0.000000
0.980560 0.754089 0.000000
0.047058 0.929382 0.047058
0.090149 0.929382 0.047058
0.221985 0.929382 0.047058
0.373840 0.958801 0.000000
0.584045 0.929413 0.000000
0.786865 0.914856 0.000000
0.934235 0.912781 0.000000
0.980560 0.907776 0.000000
0.047058 0.994720 0.047058
0.090088 0.994720 0.047058
0.221954 0.994720 0.047058
0.379791 1.000000 0.026306
0.583405 0.996918 0.000000
0.781281 0.975647 0.000000
0.929901 0.975647 0.000000
0.980560 0.975067 0.000000
0.068054 0.068054 0.087463
0.088562 0.048706 0.089905
0.238800 0.030304 0.083344
0.425385 0.012787 0.066162
0.648621 0.000000 0.052094
0.853058 0.000000 0.049988
0.997253 0.000000 0.049194
1.000000 0.047058 0.091492
0.047058 0.079071 0.091553
0.089600 0.080017 0.090881
0.236267 0.064819 0.079803
0.422180 0.047974 0.062958
0.653595 0.027008 0.041992
0.878387 0.006653 0.021545
1.000000 0.029266 0.043243
1.000000 0.079071 0.091675
0.047058 0.212097 0.091553
0.090088 0.212097 0.091553
0.238556 0.225403 0.065948
0.438751 0.194000 0.029236
0.677673 0.161865 0.002258
0.885803 0.149445 0.000000
1.000000 0.167023 0.030975
1.000000 0.203186 0.081146
0.047058 0.377167 0.091553
0.090088 0.377167 0.091553
0.216034 0.393707 0.066650
0.429016 0.410522 0.032745
0.657532 0.368256 0.000000
0.862793 0.344818 0.000000
1.000000 0.337891 0.008026
1.000000 0.354340 0.058197
0.047058 0.580505 0.091614
0.090088 0.580505 0.091522
0.219879 0.582916 0.087738
0.391876 0.627136 0.019958
0.657532 0.630402 0.000000
0.847687 0.580109 0.000000
0.981812 0.558990 0.000000
1.000000 0.552032 0.029694
0.047058 0.779846 0.091614
0.090088 0.779846 0.091614
0.222107 0.779846 0.091553
0.376495 0.814056 0.039185
0.610474 0.823883 0.000000
0.847687 0.816650 0.000000
0.981812 0.786926 0.000000
1.000000 0.764404 0.028137
0.047058 0.929382 0.091644
0.090088 0.929382 0.091522
0.222046 0.929382 0.091553
0.375336 0.955078 0.052887
0.595581 0.978516 0.000000
0.820770 0.962463 0.000000
0.981812 0.958069 0.000000
1.000000 0.924561 0.028137
0.047058 0.994720 0.091492
0.090088 0.994720 0.091644
0.222076 0.994720 0.091553
0.382233 1.000000 0.075500
0.584808 1.000000 0.046173
0.795868 1.000000 0.023254
0.951843 1.000000 0.023254
1.000000 0.994293 0.028137
0.131287 0.131287 0.209106
0.151398 0.133881 0.206512
0.215668 0.053680 0.218903
0.405884 0.032257 0.226105
0.647034 0.001556 0.209259
0.853058 0.000000 0.200562
0.997253 0.000000 0.196960
1.000000 0.047058 0.225494
0.116241 0.133484 0.212372
0.153625 0.148926 0.211334
0.216888 0.084503 0.220093
0.407562 0.062622 0.224487
0.648499 0.032135 0.204895
0.878387 0.006653 0.182220
1.000000 0.029266 0.192566
1.000000 0.079071 0.225433
0.047058 0.212097 0.225525
0.090088 0.212097 0.225525
0.221924 0.214905 0.224396
0.408936 0.194244 0.210327
0.640350 0.173309 0.189392
0.865143 0.152924 0.169098
1.000000 0.162292 0.177643
1.000000 0.212097 0.225555
0.047058 0.377167 0.225494
0.090088 0.377167 0.225494
0.222046 0.377167 0.225525
0.412079 0.393616 0.193024
0.661316 0.354614 0.147308
0.894684 0.322266 0.119873
1.000000 0.335541 0.159729
1.000000 0.364563 0.209869
0.047058 0.580505 0.225494
0.090088 0.580505 0.225494
0.222046 0.580505 0.225555
0.383942 0.601196 0.193939
0.649139 0.621338 0.151733
0.894165 0.584473 0.096863
1.000000 0.556763 0.131348
1.000000 0.556580 0.181488
0.047058 0.779846 0.225616
0.090088 0.779846 0.225494
0.222046 0.779846 0.225586
0.384766 0.788696 0.212616
0.613007 0.841980 0.129883
0.879395 0.844727 0.111603
1.000000 0.794312 0.125153
1.000000 0.764557 0.171478
0.047058 0.929382 0.225433
0.090088 0.929382 0.225525
0.222046 0.929382 0.225494
0.391174 0.929382 0.225525
0.591949 0.982849 0.143707
0.843262 1.000000 0.105804
1.000000 0.974792 0.125153
1.000000 0.924561 0.171478
0.047058 0.994720 0.225433
0.090088 0.994720 0.225464
0.222046 0.994720 0.225433
0.391144 0.994720 0.225525
0.588043 1.000000 0.194183
0.795502 1.000000 0.166565
0.951782 1.000000 0.166565
1.000000 0.994324 0.171478
0.212738 0.212738 0.365784
0.233765 0.215729 0.362823
0.275665 0.190002 0.361816
0.378571 0.060089 0.385071
0.612396 0.036224 0.400970
0.847504 0.005554 0.395081
0.997253 0.000000 0.387604
1.000000 0.047058 0.398132
0.210297 0.224670 0.367859
0.235168 0.230438 0.367950
0.285553 0.221466 0.364410
0.379761 0.090912 0.386261
0.614807 0.065796 0.401031
0.848572 0.036469 0.392944
1.000000 0.029266 0.384766
1.000000 0.079071 0.398102
0.091278 0.231201 0.388824
0.149872 0.243347 0.385895
0.304840 0.300568 0.380310
0.384399 0.219360 0.390839
0.621338 0.192322 0.397186
0.855865 0.162201 0.379486
1.000000 0.162292 0.373352
1.000000 0.212097 0.398102
0.047058 0.377197 0.398102
0.090088 0.377197 0.398102
0.222046 0.377167 0.398102
0.391724 0.382843 0.396179
0.623901 0.354797 0.379883
0.848694 0.334442 0.359558
1.000000 0.327362 0.351990
1.000000 0.377167 0.398163
0.047058 0.580505 0.398041
0.090088 0.580505 0.398163
0.222046 0.580505 0.398132
0.391113 0.580505 0.398102
0.627289 0.599426 0.358185
0.871521 0.561157 0.310028
1.000000 0.549133 0.326752
1.000000 0.565735 0.376984
0.047058 0.779846 0.398071
0.090088 0.779846 0.398102
0.222046 0.779846 0.398132
0.391113 0.779846 0.398132
0.596344 0.808960 0.353729
0.857605 0.822968 0.318054
1.000000 0.787018 0.309784
1.000000 0.764526 0.356110
0.047058 0.929382 0.398193
0.090088 0.929382 0.398071
0.222046 0.929382 0.398010
0.391113 0.929382 0.398071
0.590576 0.949799 0.367554
0.833405 0.996552 0.293854
1.000000 0.974060 0.309784
1.000000 0.924377 0.356110
0.047058 0.994720 0.398041
0.090088 0.994720 0.398193
0.222046 0.994720 0.398041
0.391113 0.994720 0.398041
0.594696 1.000000 0.384918
0.796387 1.000000 0.356445
0.951538 1.000000 0.351196
1.000000 0.994354 0.356110
0.313660 0.313660 0.559875
0.334747 0.316406 0.557129
0.393066 0.321869 0.551666
0.428314 0.227844 0.556976
0.581299 0.068024 0.590881
0.804504 0.048523 0.611084
0.969604 0.027649 0.616608
1.000000 0.047058 0.611938
0.310913 0.325165 0.562592
0.335999 0.331207 0.562164
0.396454 0.338287 0.555054
0.435059 0.260010 0.558868
0.582550 0.098846 0.592072
0.804565 0.080475 0.611176
0.970612 0.058655 0.616394
1.000000 0.079071 0.611938
0.207977 0.317078 0.581299
0.266968 0.339661 0.577789
0.405579 0.401276 0.574554
0.470795 0.390625 0.569641
0.587524 0.226929 0.597015
0.812958 0.205139 0.614258
0.979034 0.183258 0.614166
1.000000 0.212097 0.611816
0.057983 0.380432 0.609680
0.117157 0.386169 0.605988
0.296509 0.416107 0.597015
0.494751 0.488770 0.589386
0.593201 0.386322 0.602661
0.821899 0.361237 0.613373
0.987122 0.340240 0.605103
1.000000 0.377167 0.611786
0.047058 0.580536 0.611847
0.090088 0.580505 0.611847
0.222046 0.580536 0.611847
0.391113 0.580475 0.611847
0.602386 0.588928 0.608978
0.828461 0.558044 0.595612
0.987000 0.543671 0.581238
1.000000 0.580505 0.611847
0.047058 0.779846 0.611847
0.090088 0.779846 0.611786
0.222046 0.779846 0.611786
0.391113 0.779846 0.611877
0.601562 0.779846 0.611847
0.830566 0.795959 0.573730
1.000000 0.768951 0.541016
1.000000 0.768158 0.591187
0.047058 0.929382 0.611877
0.090088 0.929382 0.611786
0.222046 0.929382 0.611816
0.391113 0.929382 0.611877
0.601562 0.929382 0.611877
0.806427 0.959686 0.565338
0.992981 0.965454 0.545441
1.000000 0.924469 0.584778
0.047058 0.994720 0.611816
0.090088 0.994720 0.611755
0.222046 0.994720 0.611786
0.391113 0.994720 0.611877
0.601562 0.994720 0.611847
0.799225 1.000000 0.592682
0.951172 1.000000 0.579865
1.000000 0.994324 0.584778
0.410400 0.410400 0.745941
0.431641 0.413208 0.743164
0.492798 0.421600 0.734772
0.545166 0.391205 0.735626
0.602509 0.223175 0.749695
0.779785 0.074097 0.789734
0.936066 0.061157 0.806824
0.988831 0.058228 0.810028
0.407593 0.421753 0.748749
0.432953 0.428192 0.748016
0.495667 0.437134 0.739075
0.556122 0.422516 0.738312
0.606964 0.255035 0.751923
0.780823 0.105011 0.790863
0.936584 0.092682 0.807404
0.990997 0.088043 0.811340
0.321320 0.416290 0.764343
0.379181 0.443481 0.761963
0.502563 0.498260 0.760406
0.579193 0.506317 0.752350
0.627686 0.388397 0.759918
0.784363 0.234528 0.794342
0.941528 0.220734 0.811310
0.995361 0.216705 0.814392
0.173370 0.438141 0.790649
0.231628 0.451416 0.788025
0.409515 0.506226 0.780396
0.591736 0.585724 0.775269
0.664154 0.552307 0.771393
0.790436 0.393463 0.800476
0.946838 0.380524 0.815063
1.000000 0.377167 0.816772
0.047058 0.580566 0.816803
0.090088 0.580475 0.816803
0.223267 0.581055 0.816803
0.454712 0.609894 0.803589
0.702362 0.693451 0.793610
0.797607 0.589722 0.807556
0.957397 0.573273 0.818787
1.000000 0.580505 0.816772
0.047058 0.779785 0.816803
0.090088 0.779907 0.816803
0.222046 0.779785 0.816803
0.391113 0.779816 0.816803
0.601562 0.779846 0.816803
0.806274 0.788666 0.813538
0.967163 0.762878 0.807220
1.000000 0.779846 0.816833
0.047058 0.929382 0.816711
0.090088 0.929382 0.816895
0.222046 0.929382 0.816803
0.391113 0.929382 0.816772
0.601562 0.929382 0.816772
0.806000 0.929382 0.816803
0.967102 0.939575 0.790619
1.000000 0.924469 0.804047
0.047058 0.994720 0.816803
0.090088 0.994720 0.816711
0.222046 0.994720 0.816833
0.391113 0.994720 0.816864
0.601562 0.994720 0.816772
0.806000 0.994720 0.816772
0.949738 1.000000 0.799133
1.000000 0.994354 0.804047
0.476471 0.476471 0.873016
0.497253 0.478668 0.870819
0.560211 0.488586 0.860901
0.629639 0.489685 0.859802
0.661377 0.338104 0.868378
0.773407 0.162140 0.894867
0.918579 0.079041 0.924774
0.972076 0.074982 0.931335
0.474274 0.488373 0.875244
0.498138 0.493378 0.875977
0.562134 0.502930 0.866425
0.633057 0.506104 0.863220
0.667786 0.370483 0.869995
0.775299 0.195282 0.895691
0.919739 0.109924 0.925903
0.973022 0.106049 0.932373
0.398621 0.487671 0.889587
0.455841 0.516693 0.887726
0.567932 0.563568 0.888214
0.647247 0.574402 0.877380
0.699615 0.501984 0.879913
0.784821 0.332733 0.899536
0.924500 0.238281 0.930573
0.978455 0.233643 0.937531
0.249146 0.491577 0.917358
0.307037 0.508423 0.914886
0.485443 0.574432 0.906860
0.657532 0.651459 0.902710
0.750488 0.659180 0.894989
0.801514 0.500336 0.907349
0.930328 0.397522 0.936371
0.984192 0.392975 0.943207
0.063324 0.585205 0.953247
0.121948 0.590637 0.950165
0.302856 0.613525 0.939728
0.530518 0.664307 0.930206
0.768463 0.759460 0.920746
0.833405 0.703888 0.919983
0.937439 0.593719 0.943512
0.990967 0.589508 0.949615
0.047058 0.779755 0.956757
0.090088 0.779877 0.956757
0.222046 0.779907 0.956757
0.391113 0.779846 0.956757
0.635712 0.793335 0.949707
0.875946 0.865051 0.938751
0.943787 0.786743 0.949829
0.997833 0.781982 0.955414
0.047058 0.929443 0.956757
0.090088 0.929474 0.956757
0.222046 0.929321 0.956757
0.391113 0.929413 0.956757
0.601562 0.929352 0.956757
0.806000 0.929382 0.956757
0.949768 0.934692 0.954529
1.000000 0.929382 0.956757
0.047058 0.994720 0.956787
0.090088 0.994720 0.956726
0.222046 0.994720 0.956818
0.391113 0.994720 0.956696
0.601562 0.994720 0.956696
0.806000 0.994720 0.956757
0.950195 0.994720 0.956757
1.000000 0.994354 0.953766
0.496857 0.496857 0.912292
0.517731 0.499176 0.909973
0.580444 0.508423 0.900757
0.650726 0.510712 0.898438
0.682892 0.373047 0.905609
0.779297 0.202209 0.926849
0.915192 0.086151 0.960907
0.968353 0.078705 0.968353
0.494568 0.508728 0.914612
0.518555 0.513763 0.915222
0.583038 0.523804 0.905212
0.654144 0.527161 0.901855
0.690094 0.405182 0.907349
0.782043 0.235046 0.928070
0.916412 0.116821 0.962219
0.969421 0.109650 0.969421
0.423065 0.510406 0.927704
0.479370 0.539368 0.926941
0.588379 0.584015 0.927490
0.668335 0.595459 0.916046
0.724854 0.536102 0.917877
0.795593 0.369720 0.934784
0.921936 0.244415 0.967682
0.973846 0.238251 0.973846
0.272675 0.509521 0.956329
0.330688 0.527252 0.953888
0.510254 0.596893 0.944641
0.678009 0.671936 0.941925
0.771515 0.680206 0.933624
0.816925 0.535797 0.944122
0.927643 0.403931 0.973236
0.979309 0.397827 0.979309
0.088135 0.593567 0.990997
0.146423 0.600159 0.988159
0.326752 0.626892 0.978271
0.553986 0.683167 0.969269
0.789093 0.780060 0.959869
0.856232 0.738770 0.957245
0.934326 0.612915 0.977600
0.986053 0.594421 0.986053
0.047058 0.779907 1.000000
0.090088 0.779846 1.000000
0.222046 0.779877 1.000000
0.391113 0.779846 1.000000
0.660309 0.806793 0.987610
0.896576 0.885620 0.977875
0.945557 0.820190 0.982239
0.992676 0.787140 0.992676
0.047058 0.929260 1.000000
0.090088 0.929352 1.000000
0.222046 0.929352 1.000000
0.391113 0.929382 1.000000
0.601562 0.929382 1.000000
0.806000 0.929382 1.000000
0.972198 0.963715 0.992462
0.997650 0.931732 0.997650
0.047058 0.994659 1.000000
0.090088 0.994659 1.000000
0.222046 0.994690 1.000000
0.391113 0.994659 1.000000
0.601562 0.994751 1.000000
0.806000 0.994751 1.000000
0.950195 0.994720 1.000000
0.999817 0.994873 0.999817
