assets/luts/SONY_CYBERSHOT_DSC-WX5.CUBE
#Created by: Adobe Photoshop Export Color Lookup Plugin
TITLE "SONY_CYBERSHOT_DSC-WX5"
#LUT size
LUT_3D_SIZE 32
#data domain
DOMAIN_MIN 0.0 0.0 0.0
DOMAIN_MAX 1.0 1.0 1.0
#LUT data points
0.047058 0.047058 0.047058
0.047058 0.047058 0.047058
0.047058 0.047058 0.047058
0.060974 0.045776 0.045776
0.094360 0.042755 0.042755
0.128448 0.039673 0.039673
0.163696 0.036499 0.036499
0.200531 0.033142 0.033142
0.239471 0.029633 0.029633
0.280945 0.025848 0.025848
0.325470 0.021820 0.021820
0.373505 0.017487 0.017487
0.425385 0.012787 0.012787
0.480560 0.007782 0.007782
0.538116 0.002563 0.002563
0.594360 0.000000 0.000000
0.648621 0.000000 0.000000
0.702362 0.000000 0.000000
0.754944 0.000000 0.000000
0.805450 0.000000 0.000000
0.853058 0.000000 0.000000
0.896851 0.000000 0.000000
0.936066 0.000000 0.000000
0.969818 0.000000 0.000000
0.997253 0.000000 0.000000
1.000000 0.017609 0.017609
1.000000 0.031738 0.031738
1.000000 0.042084 0.042084
1.000000 0.047058 0.047058
1.000000 0.047058 0.047058
1.000000 0.047058 0.047058
1.000000 0.047058 0.047058
0.047058 0.047058 0.047058
0.047058 0.047058 0.047058
0.047058 0.047058 0.047058
0.060974 0.045776 0.045776
0.094360 0.042755 0.042755
0.128448 0.039673 0.039673
0.163696 0.036499 0.036499
0.200531 0.033142 0.033142
0.239471 0.029633 0.029633
0.280945 0.025848 0.025848
0.325470 0.021820 0.021820
0.373505 0.017487 0.017487
0.425385 0.012787 0.012787
0.480560 0.007782 0.007782
0.538116 0.002563 0.002563
0.594360 0.000000 0.000000
0.648621 0.000000 0.000000
0.702362 0.000000 0.000000
0.754944 0.000000 0.000000
0.805450 0.000000 0.000000
0.853058 0.000000 0.000000
0.896851 0.000000 0.000000
0.936066 0.000000 0.000000
0.969818 0.000000 0.000000
0.997253 0.000000 0.000000
1.000000 0.017609 0.017609
1.000000 0.031738 0.031738
1.000000 0.042084 0.042084
1.000000 0.047058 0.047058
1.000000 0.047058 0.047058
1.000000 0.047058 0.047058
1.000000 0.047058 0.047058
0.047058 0.047058 0.047058
0.047058 0.047058 0.047058
0.047058 0.047058 0.047058
0.060974 0.045776 0.045776
0.094360 0.042755 0.042755
0.128448 0.039673 0.039673
0.163696 0.036499 0.036499
0.200531 0.033142 0.033142
0.239471 0.029633 0.029633
0.280945 0.025848 0.025848
0.325470 0.021820 0.021820
0.373505 0.017487 0.017487
0.425385 0.012787 0.012787
0.480560 0.007782 0.007782
0.538116 0.002563 0.002563
0.594360 0.000000 0.000000
0.648621 0.000000 0.000000
0.702362 0.000000 0.000000
0.754944 0.000000 0.000000
0.805450 0.000000 0.000000
0.853058 0.000000 0.000000
0.896851 0.000000 0.000000
0.936066 0.000000 0.000000
0.969818 0.000000 0.000000
0.997253 0.000000 0.000000
1.000000 0.017609 0.017609
1.000000 0.031738 0.031738
1.000000 0.042084 0.042084
1.000000 0.047058 0.047058
1.000000 0.047058 0.047058
1.000000 0.047058 0.047058
1.000000 0.047058 0.047058
0.047058 0.047852 0.047058
0.047058 0.047852 0.047058
0.047058 0.047852 0.047058
0.061066 0.046692 0.045715
0.094360 0.043701 0.042755
0.128448 0.040619 0.039673
0.163696 0.037476 0.036499
0.200531 0.034088 0.033142
0.239471 0.030609 0.029633
0.280945 0.026794 0.025848
0.325470 0.022797 0.021820
0.373505 0.018433 0.017487
0.425385 0.013702 0.012787
0.480560 0.008698 0.007782
0.538116 0.003479 0.002563
0.594360 0.000885 0.000000
0.648621 0.000946 0.000000
0.702362 0.000854 0.000000
0.754944 0.000916 0.000000
0.805450 0.000977 0.000000
0.853058 0.000824 0.000000
0.896851 0.000885 0.000000
0.936066 0.000916 0.000000
0.969818 0.000946 0.000000
0.997253 0.000977 0.000000
1.000000 0.018555 0.017609
1.000000 0.032440 0.031738
1.000000 0.042786 0.042084
1.000000 0.047760 0.047058
1.000000 0.047760 0.047058
1.000000 0.047760 0.047058
1.000000 0.047760 0.047058
0.047058 0.079071 0.047058
0.047058 0.079071 0.047058
0.047058 0.079071 0.047058
0.059052 0.080383 0.045074
0.095642 0.081024 0.038513
0.132935 0.075256 0.031311
0.169434 0.070007 0.027039
0.207123 0.065308 0.023132
0.245667 0.061432 0.020203
0.286743 0.057709 0.017151
0.330414 0.054230 0.014252
0.378418 0.049957 0.010223
0.429199 0.046234 0.006958
0.484100 0.041718 0.002563
0.539429 0.038727 0.000000
0.593475 0.037964 0.000000
0.648102 0.037354 0.000000
0.702240 0.037018 0.000000
0.754944 0.036499 0.000000
0.805450 0.036194 0.000000
0.853058 0.036041 0.000000
0.896851 0.035675 0.000000
0.936066 0.035645 0.000000
0.969818 0.035522 0.000000
0.997253 0.035309 0.000000
1.000000 0.051666 0.017609
1.000000 0.064819 0.031738
1.000000 0.074371 0.042084
1.000000 0.079163 0.047058
1.000000 0.079163 0.047058
1.000000 0.079163 0.047058
1.000000 0.079163 0.047058
0.047058 0.110718 0.047058
0.047058 0.110718 0.047058
0.047058 0.110718 0.047058
0.059723 0.110718 0.047058
0.091339 0.117798 0.036163
0.130493 0.116760 0.032501
0.169464 0.111023 0.023346
0.209106 0.104431 0.016693
0.249725 0.098328 0.011749
0.292511 0.092407 0.006927
0.338409 0.086487 0.001862
0.384247 0.082367 0.000000
0.431763 0.079895 0.000000
0.482269 0.077820 0.000000
0.535004 0.076294 0.000000
0.589081 0.074921 0.000000
0.643707 0.073853 0.000000
0.697784 0.073090 0.000000
0.750793 0.072418 0.000000
0.801575 0.071808 0.000000
0.849579 0.071350 0.000000
0.893646 0.070892 0.000000
0.933228 0.070618 0.000000
0.967163 0.070374 0.000000
0.994873 0.070190 0.000000
1.000000 0.083160 0.015381
1.000000 0.095459 0.029602
1.000000 0.104370 0.039917
1.000000 0.108856 0.044983
1.000000 0.108856 0.044983
1.000000 0.108856 0.044983
1.000000 0.108856 0.044983
0.047058 0.143158 0.047058
0.047058 0.143158 0.047058
0.047058 0.143158 0.047058
0.059723 0.143158 0.047058
0.088074 0.148529 0.039032
0.126160 0.155334 0.028198
0.166565 0.153381 0.026245
0.206116 0.147491 0.017883
0.250916 0.140472 0.006012
0.293732 0.133362 0.001160
0.335724 0.127441 0.000000
0.379700 0.122925 0.000000
0.427246 0.119324 0.000000
0.477783 0.116425 0.000000
0.530487 0.114105 0.000000
0.584503 0.112305 0.000000
0.639160 0.110779 0.000000
0.693268 0.109497 0.000000
0.746277 0.108582 0.000000
0.797150 0.107635 0.000000
0.845032 0.107086 0.000000
0.889252 0.106384 0.000000
0.928589 0.106110 0.000000
0.962677 0.105530 0.000000
0.990234 0.105408 0.000000
1.000000 0.113647 0.010773
1.000000 0.125000 0.025024
1.000000 0.133118 0.035400
1.000000 0.137207 0.040466
1.000000 0.137207 0.040466
1.000000 0.137207 0.040466
1.000000 0.137207 0.040466
0.047058 0.176819 0.047058
0.047058 0.176819 0.047058
0.047058 0.176819 0.047058
0.059723 0.176819 0.047058
0.087982 0.180084 0.042297
0.120148 0.187897 0.030121
0.161896 0.193237 0.021576
0.204346 0.191345 0.019653
0.244537 0.184509 0.012390
0.291992 0.178162 0.000000
0.331024 0.169647 0.000000
0.375031 0.163879 0.000000
0.422546 0.159393 0.000000
0.473083 0.155701 0.000000
0.525818 0.152771 0.000000
0.579865 0.150360 0.000000
0.634430 0.148529 0.000000
0.688568 0.146912 0.000000
0.741577 0.145569 0.000000
0.792450 0.144531 0.000000
0.840302 0.143616 0.000000
0.884430 0.142944 0.000000
0.923981 0.142334 0.000000
0.957886 0.141937 0.000000
0.985596 0.141724 0.000000
1.000000 0.145813 0.006042
1.000000 0.155945 0.020325
1.000000 0.163513 0.030762
1.000000 0.167145 0.035797
1.000000 0.167145 0.035797
1.000000 0.167145 0.035797
1.000000 0.167145 0.035797
0.047058 0.212097 0.047058
0.047058 0.212097 0.047058
0.047058 0.212097 0.047058
0.059723 0.212097 0.047058
0.089539 0.212738 0.046082
0.117584 0.221283 0.033264
0.154755 0.229156 0.020874
0.199280 0.232971 0.014679
0.244202 0.231018 0.012695
0.286652 0.223602 0.005310
0.329681 0.214905 0.000000
0.370300 0.205841 0.000000
0.417572 0.200317 0.000000
0.468109 0.195984 0.000000
0.520905 0.192535 0.000000
0.574921 0.189636 0.000000
0.629486 0.187347 0.000000
0.683685 0.185455 0.000000
0.736572 0.183960 0.000000
0.787506 0.182648 0.000000
0.835388 0.181732 0.000000
0.879547 0.180817 0.000000
0.919037 0.180176 0.000000
0.953064 0.179626 0.000000
0.980652 0.179321 0.000000
1.000000 0.179688 0.001190
1.000000 0.188721 0.015411
1.000000 0.195374 0.025787
1.000000 0.198547 0.030792
1.000000 0.198547 0.030792
1.000000 0.198547 0.030792
1.000000 0.198547 0.030792
0.047058 0.249359 0.047058
0.047058 0.249359 0.047058
0.047058 0.249359 0.047058
0.059692 0.249359 0.047058
0.090088 0.249359 0.047058
0.117157 0.256104 0.036957
0.150177 0.264343 0.024261
0.191528 0.272461 0.011444
0.238831 0.274963 0.007355
0.286652 0.272919 0.005310
0.329681 0.263428 0.000000
0.370300 0.252319 0.000000
0.414185 0.243500 0.000000
0.462921 0.237549 0.000000
0.515656 0.233521 0.000000
0.569733 0.230347 0.000000
0.624359 0.227722 0.000000
0.678497 0.225616 0.000000
0.731415 0.223938 0.000000
0.782288 0.222504 0.000000
0.830200 0.221344 0.000000
0.874329 0.220276 0.000000
0.913788 0.219513 0.000000
0.947815 0.218903 0.000000
0.975464 0.218384 0.000000
0.996002 0.218109 0.000000
1.000000 0.223755 0.010132
1.000000 0.229584 0.020599
1.000000 0.232544 0.025574
1.000000 0.232544 0.025574
1.000000 0.232544 0.025574
1.000000 0.232544 0.025574
0.047058 0.289062 0.047058
0.047058 0.289062 0.047058
0.047058 0.289062 0.047058
0.059692 0.289062 0.047058
0.090057 0.289062 0.047058
0.118103 0.293152 0.040955
0.147949 0.301453 0.028198
0.185242 0.310394 0.014587
0.230682 0.318390 0.001617
0.280579 0.319244 0.000000
0.329681 0.315125 0.000000
0.370300 0.301849 0.000000
0.414185 0.291321 0.000000
0.460846 0.282867 0.000000
0.510101 0.276459 0.000000
0.564178 0.273010 0.000000
0.618805 0.270111 0.000000
0.672913 0.267792 0.000000
0.725861 0.265808 0.000000
0.776733 0.264343 0.000000
0.824738 0.262970 0.000000
0.868744 0.261932 0.000000
0.908234 0.260986 0.000000
0.942261 0.260406 0.000000
0.969940 0.260010 0.000000
0.990479 0.259460 0.000000
1.000000 0.261505 0.004639
1.000000 0.266571 0.015045
1.000000 0.268921 0.020111
1.000000 0.268921 0.020111
1.000000 0.268921 0.020111
1.000000 0.268921 0.020111
0.047058 0.331543 0.047058
0.047058 0.331543 0.047058
0.047058 0.331543 0.047058
0.059692 0.331543 0.047058
0.090118 0.331543 0.047058
0.120148 0.332672 0.045380
0.147491 0.341278 0.032318
0.181366 0.350281 0.018616
0.222595 0.358551 0.005402
0.268280 0.358765 0.000000
0.319336 0.358765 0.000000
0.370300 0.354828 0.000000
0.414185 0.342499 0.000000
0.460846 0.332581 0.000000
0.509552 0.324554 0.000000
0.559448 0.318115 0.000000
0.612854 0.314362 0.000000
0.666962 0.311981 0.000000
0.719971 0.309875 0.000000
0.770844 0.308258 0.000000
0.818726 0.306824 0.000000
0.862793 0.305847 0.000000
0.902374 0.304901 0.000000
0.936279 0.304260 0.000000
0.963989 0.303589 0.000000
0.984497 0.303314 0.000000
0.998688 0.303070 0.000000
1.000000 0.306427 0.009125
1.000000 0.308441 0.014038
1.000000 0.308441 0.014038
1.000000 0.308441 0.014038
1.000000 0.308441 0.014038
0.047058 0.377167 0.047058
0.047058 0.377167 0.047058
0.047058 0.377167 0.047058
0.059723 0.377167 0.047058
0.090088 0.377167 0.047058
0.121124 0.377167 0.047058
0.148346 0.383911 0.036835
0.179535 0.392944 0.023163
0.217407 0.402496 0.008667
0.261505 0.405884 0.000000
0.307770 0.401215 0.000000
0.360870 0.401215 0.000000
0.414185 0.397400 0.000000
0.460846 0.385925 0.000000
0.509552 0.376678 0.000000
0.559448 0.369202 0.000000
0.609924 0.363037 0.000000
0.660583 0.358521 0.000000
0.713593 0.356445 0.000000
0.764404 0.354767 0.000000
0.812408 0.353455 0.000000
0.856506 0.352142 0.000000
0.896027 0.351318 0.000000
0.929962 0.350555 0.000000
0.957581 0.349976 0.000000
0.978058 0.349579 0.000000
0.992279 0.349335 0.000000
1.000000 0.349945 0.002777
1.000000 0.351532 0.007782
1.000000 0.351532 0.007782
1.000000 0.351532 0.007782
1.000000 0.351532 0.007782
0.047058 0.425659 0.047058
0.047058 0.425659 0.047058
0.047058 0.425659 0.047058
0.059723 0.425659 0.047058
0.090118 0.425659 0.047058
0.121094 0.425659 0.047058
0.150085 0.429779 0.041168
0.179260 0.438110 0.028137
0.214264 0.447266 0.014069
0.256195 0.456055 0.000000
0.301178 0.450378 0.000000
0.350006 0.446320 0.000000
0.405579 0.446320 0.000000
0.460846 0.442627 0.000000
0.509552 0.431915 0.000000
0.559448 0.423401 0.000000
0.609924 0.416504 0.000000
0.659912 0.410828 0.000000
0.708832 0.406158 0.000000
0.757629 0.403229 0.000000
0.805664 0.401855 0.000000
0.849640 0.400757 0.000000
0.889221 0.399902 0.000000
0.923248 0.399200 0.000000
0.950775 0.398560 0.000000
0.971313 0.398163 0.000000
0.985535 0.397980 0.000000
0.995941 0.397797 0.000000
1.000000 0.397827 0.001038
1.000000 0.397827 0.001038
1.000000 0.397827 0.001038
1.000000 0.397827 0.001038
0.047058 0.476227 0.047058
0.047058 0.476227 0.047058
0.047058 0.476227 0.047058
0.059723 0.476227 0.047058
0.090118 0.476227 0.047058
0.121124 0.476227 0.047058
0.153076 0.476196 0.047058
0.180176 0.485626 0.032959
0.212799 0.495209 0.018372
0.251984 0.505005 0.003357
0.296661 0.502716 0.000000
0.343506 0.496643 0.000000
0.395538 0.493347 0.000000
0.453247 0.493347 0.000000
0.509552 0.489655 0.000000
0.559448 0.479950 0.000000
0.609924 0.472046 0.000000
0.659912 0.465607 0.000000
0.708832 0.460327 0.000000
0.755798 0.455963 0.000000
0.800110 0.452393 0.000000
0.842682 0.450562 0.000000
0.882141 0.449677 0.000000
0.916077 0.448883 0.000000
0.943817 0.448395 0.000000
0.964203 0.448212 0.000000
0.978424 0.447876 0.000000
0.989014 0.447662 0.000000
0.993927 0.447693 0.000000
0.993927 0.447693 0.000000
0.993927 0.447693 0.000000
0.993927 0.447693 0.000000
0.047058 0.528107 0.047058
0.047058 0.528107 0.047058
0.047058 0.528107 0.047058
0.059753 0.528107 0.047058
0.090057 0.528107 0.047058
0.121033 0.528107 0.047058
0.153107 0.528107 0.047058
0.182312 0.533539 0.038635
0.212891 0.543304 0.023956
0.249512 0.553375 0.008667
0.292847 0.556335 0.000000
0.339600 0.550232 0.000000
0.388916 0.543671 0.000000
0.443878 0.541595 0.000000
0.502869 0.541595 0.000000
0.559448 0.537994 0.000000
0.609924 0.529053 0.000000
0.659912 0.521851 0.000000
0.708832 0.516052 0.000000
0.755798 0.511108 0.000000
0.800110 0.507111 0.000000
0.840820 0.503967 0.000000
0.877319 0.501190 0.000000
0.908905 0.499268 0.000000
0.936523 0.498901 0.000000
0.957001 0.498596 0.000000
0.971222 0.498169 0.000000
0.981598 0.498230 0.000000
0.986725 0.498169 0.000000
0.986725 0.498169 0.000000
0.986725 0.498169 0.000000
0.986725 0.498169 0.000000
0.047058 0.580505 0.047058
0.047058 0.580505 0.047058
0.047058 0.580505 0.047058
0.059692 0.580505 0.047058
0.090027 0.580505 0.047058
0.121033 0.580505 0.047058
0.153198 0.580505 0.047058
0.184906 0.582489 0.043945
0.213715 0.592926 0.028503
0.248413 0.602875 0.013397
0.289795 0.610596 0.000000
0.336487 0.604492 0.000000
0.385651 0.597900 0.000000
0.436676 0.590881 0.000000
0.494202 0.590332 0.000000
0.553589 0.590332 0.000000
0.609924 0.586700 0.000000
0.659912 0.578705 0.000000
0.708832 0.572113 0.000000
0.755798 0.566864 0.000000
0.800110 0.562378 0.000000
0.840820 0.558777 0.000000
0.877319 0.555817 0.000000
0.908691 0.553497 0.000000
0.934235 0.551727 0.000000
0.953156 0.550568 0.000000
0.966309 0.549683 0.000000
0.975922 0.549194 0.000000
0.980560 0.548920 0.000000
0.980560 0.548920 0.000000
0.980560 0.548920 0.000000
0.980560 0.548920 0.000000
0.047058 0.632538 0.047058
0.047058 0.632538 0.047058
0.047058 0.632538 0.047058
0.059784 0.632538 0.047058
0.090088 0.632538 0.047058
0.121094 0.632538 0.047058
0.153107 0.632538 0.047058
0.186707 0.632538 0.047058
0.215240 0.641876 0.033417
0.248566 0.651093 0.018921
0.287598 0.661896 0.002502
0.333832 0.658325 0.000000
0.382965 0.651672 0.000000
0.434082 0.644684 0.000000
0.487152 0.638733 0.000000
0.545807 0.638733 0.000000
0.604889 0.638733 0.000000
0.659912 0.635254 0.000000
0.708832 0.628021 0.000000
0.755798 0.622009 0.000000
0.800110 0.617279 0.000000
0.840820 0.613159 0.000000
0.877319 0.610016 0.000000
0.908691 0.607635 0.000000
0.934235 0.605560 0.000000
0.953156 0.604340 0.000000
0.966309 0.603485 0.000000
0.975922 0.602814 0.000000
0.980560 0.602570 0.000000
0.980560 0.602570 0.000000
0.980560 0.602570 0.000000
0.980560 0.602570 0.000000
0.047058 0.683594 0.047058
0.047058 0.683594 0.047058
0.047058 0.683594 0.047058
0.059631 0.683594 0.047058
0.090118 0.683594 0.047058
0.121033 0.683594 0.047058
0.153198 0.683594 0.047058
0.186615 0.683594 0.047058
0.217987 0.688477 0.039612
0.249451 0.699097 0.023712
0.286652 0.710358 0.006897
0.331573 0.711090 0.000000
0.380798 0.704498 0.000000
0.432037 0.697510 0.000000
0.484283 0.690186 0.000000
0.539307 0.686249 0.000000
0.597778 0.686249 0.000000
0.655762 0.686249 0.000000
0.708832 0.682709 0.000000
0.755798 0.676270 0.000000
0.800110 0.670990 0.000000
0.840820 0.666748 0.000000
0.877319 0.663330 0.000000
0.908691 0.660431 0.000000
0.934235 0.658478 0.000000
0.953156 0.656921 0.000000
0.966309 0.656067 0.000000
0.975922 0.655212 0.000000
0.980560 0.654999 0.000000
0.980560 0.654999 0.000000
0.980560 0.654999 0.000000
0.980560 0.654999 0.000000
0.047058 0.732941 0.047058
0.047058 0.732941 0.047058
0.047058 0.732941 0.047058
0.059784 0.732941 0.047058
0.090088 0.732941 0.047058
0.121063 0.732941 0.047058
0.153046 0.732941 0.047058
0.186707 0.732941 0.047058
0.220520 0.734802 0.044373
0.251282 0.744110 0.029785
0.286591 0.756714 0.011505
0.329926 0.762207 0.000000
0.379089 0.755585 0.000000
0.430176 0.748535 0.000000
0.482666 0.741272 0.000000
0.535065 0.733734 0.000000
0.591827 0.732147 0.000000
0.649200 0.732147 0.000000
0.705322 0.732147 0.000000
0.755798 0.728668 0.000000
0.800110 0.723145 0.000000
0.840820 0.718475 0.000000
0.877319 0.714752 0.000000
0.908691 0.711700 0.000000
0.934235 0.709564 0.000000
0.953156 0.707886 0.000000
0.966309 0.706787 0.000000
0.975922 0.706207 0.000000
0.980560 0.705750 0.000000
0.980560 0.705750 0.000000
0.980560 0.705750 0.000000
0.980560 0.705750 0.000000
0.047058 0.779846 0.047058
0.047058 0.779846 0.047058
0.047058 0.779846 0.047058
0.059753 0.779846 0.047058
0.090179 0.779846 0.047058
0.121124 0.779846 0.047058
0.153137 0.779846 0.047058
0.186615 0.779846 0.047058
0.222015 0.779846 0.047058
0.253082 0.788116 0.034241
0.287537 0.799316 0.017426
0.328339 0.810669 0.000000
0.377472 0.804047 0.000000
0.428894 0.797058 0.000000
0.481232 0.789734 0.000000
0.533997 0.782288 0.000000
0.586945 0.775757 0.000000
0.643951 0.775757 0.000000
0.699615 0.775757 0.000000
0.753021 0.775757 0.000000
0.800110 0.772552 0.000000
0.840820 0.767548 0.000000
0.877319 0.763580 0.000000
0.908691 0.760498 0.000000
0.934235 0.757935 0.000000
0.953156 0.756287 0.000000
0.966309 0.755157 0.000000
0.975922 0.754333 0.000000
0.980560 0.754089 0.000000
0.980560 0.754089 0.000000
0.980560 0.754089 0.000000
0.980560 0.754089 0.000000
0.047058 0.823608 0.047058
0.047058 0.823608 0.047058
0.047058 0.823608 0.047058
0.059753 0.823608 0.047058
0.090088 0.823608 0.047058
0.121185 0.823608 0.047058
0.153229 0.823608 0.047058
0.186584 0.823608 0.047058
0.222046 0.823608 0.047058
0.254852 0.829681 0.037994
0.288147 0.841980 0.020050
0.327850 0.853607 0.002411
0.376373 0.849365 0.000000
0.427551 0.842346 0.000000
0.480316 0.835052 0.000000
0.533142 0.827484 0.000000
0.585541 0.819977 0.000000
0.639465 0.816467 0.000000
0.694885 0.816467 0.000000
0.747894 0.816467 0.000000
0.797943 0.816467 0.000000
0.840820 0.813324 0.000000
0.877319 0.809204 0.000000
0.908691 0.805756 0.000000
0.934235 0.803314 0.000000
0.953156 0.801422 0.000000
0.966309 0.800232 0.000000
0.975922 0.799377 0.000000
0.980560 0.799103 0.000000
0.980560 0.799103 0.000000
0.980560 0.799103 0.000000
0.980560 0.799103 0.000000
0.047058 0.863525 0.047058
0.047058 0.863525 0.047058
0.047058 0.863525 0.047058
0.059814 0.863525 0.047058
0.090118 0.863525 0.047058
0.121002 0.863525 0.047058
0.153107 0.863525 0.047058
0.186584 0.863525 0.047058
0.222076 0.863525 0.047058
0.257050 0.866730 0.042267
0.290131 0.876831 0.026489
0.328308 0.889404 0.007843
0.375336 0.890686 0.000000
0.426697 0.883606 0.000000
0.479248 0.876343 0.000000
0.532440 0.868866 0.000000
0.584961 0.861267 0.000000
0.635895 0.853699 0.000000
0.690857 0.853607 0.000000
0.743774 0.853607 0.000000
0.793365 0.853607 0.000000
0.839233 0.853607 0.000000
0.877319 0.850769 0.000000
0.908691 0.847229 0.000000
0.934235 0.844604 0.000000
0.953156 0.842621 0.000000
0.966309 0.841522 0.000000
0.975922 0.840576 0.000000
0.980560 0.840027 0.000000
0.980560 0.840027 0.000000
0.980560 0.840027 0.000000
0.980560 0.840027 0.000000
0.047058 0.899048 0.047058
0.047058 0.899048 0.047058
0.047058 0.899048 0.047058
0.059753 0.899048 0.047058
0.090118 0.899048 0.047058
0.121094 0.899048 0.047058
0.153137 0.899048 0.047058
0.186615 0.899048 0.047058
0.221985 0.899048 0.047058
0.258911 0.900299 0.045380
0.291016 0.911194 0.028870
0.328705 0.922974 0.010956
0.374512 0.927429 0.000000
0.425781 0.920349 0.000000
0.478607 0.913055 0.000000
0.531708 0.905579 0.000000
0.584473 0.897980 0.000000
0.635712 0.890503 0.000000
0.687714 0.886658 0.000000
0.740326 0.886658 0.000000
0.789886 0.886658 0.000000
0.835358 0.886658 0.000000
0.876282 0.886658 0.000000
0.908691 0.884064 0.000000
0.934235 0.881317 0.000000
0.953156 0.879395 0.000000
0.966309 0.878082 0.000000
0.975922 0.877045 0.000000
0.980560 0.876648 0.000000
0.980560 0.876648 0.000000
0.980560 0.876648 0.000000
0.980560 0.876648 0.000000
0.047058 0.929382 0.047058
0.047058 0.929382 0.047058
0.047058 0.929382 0.047058
0.059753 0.929382 0.047058
0.090149 0.929382 0.047058
0.121155 0.929382 0.047058
0.153046 0.929382 0.047058
0.186646 0.929382 0.047058
0.221985 0.929382 0.047058
0.259674 0.929382 0.047058
0.292877 0.938049 0.033356
0.329590 0.950623 0.014709
0.373840 0.958801 0.000000
0.425262 0.951813 0.000000
0.477997 0.944489 0.000000
0.531158 0.936951 0.000000
0.584045 0.929413 0.000000
0.635590 0.921875 0.000000
0.685242 0.914856 0.000000
0.737518 0.914856 0.000000
0.786865 0.914856 0.000000
0.832428 0.914856 0.000000
0.873077 0.914856 0.000000
0.907928 0.914856 0.000000
0.934235 0.912781 0.000000
0.953156 0.910583 0.000000
0.966309 0.909210 0.000000
0.975922 0.908264 0.000000
0.980560 0.907776 0.000000
0.980560 0.907776 0.000000
0.980560 0.907776 0.000000
0.980560 0.907776 0.000000
0.047058 0.953949 0.047058
0.047058 0.953949 0.047058
0.047058 0.953949 0.047058
0.059692 0.953949 0.047058
0.089996 0.953949 0.047058
0.121002 0.953949 0.047058
0.153107 0.953949 0.047058
0.186554 0.953949 0.047058
0.221985 0.953949 0.047058
0.259827 0.953949 0.047058
0.292969 0.963867 0.032959
0.329742 0.975220 0.015533
0.373413 0.984222 0.000000
0.424866 0.977112 0.000000
0.477570 0.969818 0.000000
0.530701 0.962280 0.000000
0.583679 0.954773 0.000000
0.635254 0.947235 0.000000
0.684998 0.939941 0.000000
0.735565 0.937714 0.000000
0.784790 0.937714 0.000000
0.830109 0.937714 0.000000
0.870636 0.937714 0.000000
0.905426 0.937714 0.000000
0.933807 0.937714 0.000000
0.953156 0.935944 0.000000
0.966309 0.934692 0.000000
0.975922 0.933746 0.000000
0.980560 0.933167 0.000000
0.980560 0.933167 0.000000
0.980560 0.933167 0.000000
0.980560 0.933167 0.000000
0.047058 0.972168 0.047058
0.047058 0.972168 0.047058
0.047058 0.972168 0.047058
0.059692 0.972168 0.047058
0.090210 0.972168 0.047058
0.121124 0.972168 0.047058
0.153198 0.972168 0.047058
0.186646 0.972168 0.047058
0.222107 0.972168 0.047058
0.259827 0.972168 0.047058
0.294403 0.979492 0.036255
0.330505 0.991180 0.018433
0.373718 1.000000 0.002991
0.424316 0.996002 0.000000
0.477173 0.988647 0.000000
0.530609 0.981201 0.000000
0.583557 0.973633 0.000000
0.635162 0.966064 0.000000
0.684937 0.958832 0.000000
0.733948 0.954651 0.000000
0.783112 0.954651 0.000000
0.828339 0.954651 0.000000
0.868896 0.954651 0.000000
0.903595 0.954651 0.000000
0.932037 0.954651 0.000000
0.953033 0.954651 0.000000
0.966309 0.953339 0.000000
0.975922 0.952332 0.000000
0.980560 0.951843 0.000000
0.980560 0.951843 0.000000
0.980560 0.951843 0.000000
0.980560 0.951843 0.000000
0.047058 0.985107 0.047058
0.047058 0.985107 0.047058
0.047058 0.985107 0.047058
0.059662 0.985107 0.047058
0.090118 0.985107 0.047058
0.121033 0.985107 0.047058
0.153107 0.985107 0.047058
0.186768 0.985107 0.047058
0.222015 0.985107 0.047058
0.259827 0.985107 0.047058
0.295319 0.991180 0.037933
0.332153 1.000000 0.023041
0.377075 1.000000 0.016388
0.425629 1.000000 0.009399
0.477173 1.000000 0.002075
0.530334 0.994629 0.000000
0.583374 0.986969 0.000000
