assets/luts/SONY_CYBERSHOT_DSC-WX5.CUBE
#Created by: Adobe Photoshop Export Color Lookup Plugin
TITLE "SONY_CYBERSHOT_DSC-WX5"
#LUT size
LUT_3D_SIZE 5
#data domain
#LUT data points
DOMAIN_MIN 0.000000 0.000000 0.000000
DOMAIN_MAX 0.903226 0.903226 0.903226
0.047058 0.047058 0.047058
0.200531 0.033142 0.033142
0.538116 0.002563 0.002563
0.896851 0.000000 0.000000
1.000000 0.047058 0.047058
0.047058 0.176819 0.047058
0.204346 0.191345 0.019653
0.525818 0.152771 0.000000
0.884430 0.142944 0.000000
1.000000 0.167145 0.035797
0.047058 0.476227 0.047058
0.180176 0.485626 0.032959
0.509552 0.489655 0.000000
0.842682 0.450562 0.000000
0.993927 0.447693 0.000000
0.047058 0.823608 0.047058
0.186584 0.823608 0.047058
0.480316 0.835052 0.000000
0.840820 0.813324 0.000000
0.980560 0.799103 0.000000
0.047058 0.994720 0.047058
0.186584 0.994720 0.047058
0.477570 1.000000 0.012085
0.826538 0.975647 0.000000
0.980560 0.975067 0.000000
0.114288 0.114288 0.176392
0.181580 0.052338 0.184235
0.530273 0.010406 0.176300
0.896851 0.000000 0.159180
1.000000 0.047058 0.189453
0.047058 0.176819 0.189514
0.186371 0.179138 0.188477
0.525208 0.145264 0.160461
0.916809 0.109772 0.124939
1.000000 0.176819 0.189484
0.047058 0.476227 0.189545
0.186646 0.476227 0.189545
0.532104 0.509033 0.129822
0.954803 0.442474 0.049133
1.000000 0.454071 0.155212
0.047058 0.823608 0.189453
0.186646 0.823608 0.189453
0.481323 0.864075 0.128387
0.933258 0.898712 0.059937
1.000000 0.811401 0.132965
0.047058 0.994720 0.189575
0.186646 0.994720 0.189606
0.483185 1.000000 0.169525
0.843109 1.000000 0.128052
1.000000 0.994293 0.132965
0.262054 0.262054 0.460602
0.325439 0.268677 0.453979
0.477386 0.063965 0.485626
0.876434 0.020386 0.506104
1.000000 0.047058 0.502594
0.179779 0.264557 0.477386
0.335602 0.331360 0.471771
0.482208 0.188904 0.490448
0.883972 0.142639 0.501373
1.000000 0.176819 0.502594
0.047058 0.476166 0.502533
0.186646 0.476227 0.502533
0.494476 0.483490 0.500092
0.886993 0.438995 0.470490
1.000000 0.476227 0.502563
0.047058 0.823608 0.502441
0.186646 0.823608 0.502472
0.493652 0.823608 0.502502
0.893707 0.859070 0.434387
1.000000 0.811340 0.467834
0.047058 0.994720 0.502625
0.186646 0.994720 0.502502
0.493652 0.994720 0.502594
0.842682 1.000000 0.465729
1.000000 0.994415 0.467834
0.430817 0.430817 0.785248
0.498108 0.440674 0.775391
0.583282 0.346649 0.777405
0.821899 0.075623 0.831482
0.985107 0.061951 0.849640
0.376068 0.443481 0.798248
0.504425 0.500153 0.796356
0.619537 0.473511 0.788483
0.826447 0.200836 0.836060
0.988739 0.188080 0.852692
0.107056 0.497406 0.846588
0.296661 0.529053 0.837158
0.665863 0.658356 0.823822
0.836273 0.490479 0.845825
0.998962 0.477234 0.859619
0.047058 0.823547 0.860077
0.186646 0.823578 0.860077
0.493652 0.823578 0.860077
0.849884 0.832001 0.856903
1.000000 0.823608 0.860077
0.047058 0.994720 0.860077
0.186646 0.994720 0.860168
0.493652 0.994720 0.860046
0.849792 0.994720 0.860077
1.000000 0.994324 0.850342
0.496857 0.496857 0.912292
0.564240 0.506104 0.903076
0.664917 0.457825 0.899597
0.815338 0.158783 0.938263
0.968353 0.078705 0.968353
0.453308 0.517334 0.923279
0.569672 0.565369 0.924225
0.706268 0.577332 0.912262
0.822479 0.294647 0.940216
0.972656 0.204132 0.972656
0.185608 0.539062 0.970306
0.372467 0.582916 0.963684
0.732239 0.724731 0.950531
0.852478 0.598572 0.954620
0.982605 0.493622 0.982605
0.047058 0.823639 1.000000
0.186646 0.823669 1.000000
0.493652 0.823608 1.000000
0.919464 0.908569 0.982056
0.994141 0.829468 0.994141
0.047058 0.994659 1.000000
0.186646 0.994629 1.000000
0.493652 0.994690 1.000000
0.849792 0.994720 1.000000
0.999817 0.994873 0.999817
